packages/ui-icons/svg/Solid/text-direction-ltr.svg

<svg viewBox="0 0 1920 1920" version="1.1" xmlns="http://www.w3.org/2000/svg">
    <path d="M306.204615,1607.00929 L1596.80189,1607.00929 L1403.20385,1800.61266 L1522.5879,1920 L1920,1522.57695 L1522.5879,1125.15389 L1403.20385,1244.54123 L1596.80189,1438.1446 L306.204615,1438.1446 L306.204615,1607.00929 Z M695.866039,787.669359 L729.215897,787.669359 L729.215897,1234.82307 L898.075935,1234.82307 L898.075935,168.864693 L1094.79788,168.864693 L1094.79788,1234.82307 L1263.65792,1234.82307 L1263.65792,168.864693 L1435.05086,168.864693 L1435.05086,0 L695.866039,0 C478.71203,0 302,176.632469 302,393.792464 C302,611.036891 478.71203,787.669359 695.866039,787.669359" stroke="none" stroke-width="1" fill-rule="evenodd"/>
</svg>

<svg viewBox="0 0 1920 1920" version="1.1" xmlns="http://www.w3.org/2000/svg">
    <path d="M306.205 1607.01h1290.597l-193.598 193.603L1522.588 1920 1920 1522.577l-397.412-397.423-119.384 119.387 193.598 193.604H306.205v168.864zm389.661-819.34h33.35v447.153h168.86V168.865h196.722v1065.958h168.86V168.865h171.393V0H695.866C478.712 0 302 176.632 302 393.792c0 217.245 176.712 393.877 393.866 393.877" stroke="none" stroke-width="1" fill-rule="evenodd"/>
</svg>
